src/img/books.svg

<!-- Generated by IcoMoon.io -->
<svg version="1.1" xmlns="http://www.w3.org/2000/svg" width="36" height="32" viewBox="0 0 36 32">
<title>books</title>
<path d="M7 4h-6c-0.55 0-1 0.45-1 1v22c0 0.55 0.45 1 1 1h6c0.55 0 1-0.45 1-1v-22c0-0.55-0.45-1-1-1zM6 10h-4v-2h4v2z"></path>
<path d="M17 4h-6c-0.55 0-1 0.45-1 1v22c0 0.55 0.45 1 1 1h6c0.55 0 1-0.45 1-1v-22c0-0.55-0.45-1-1-1zM16 10h-4v-2h4v2z"></path>
<path d="M23.909 5.546l-5.358 2.7c-0.491 0.247-0.691 0.852-0.443 1.343l8.999 17.861c0.247 0.491 0.852 0.691 1.343 0.443l5.358-2.7c0.491-0.247 0.691-0.852 0.443-1.343l-8.999-17.861c-0.247-0.491-0.852-0.691-1.343-0.443z"></path>
</svg>

<svg xmlns="http://www.w3.org/2000/svg" viewBox="-3707 -9205 34.358 24">
  <defs>
    <style>
      .cls-1 {
        fill: #fff;
      }
    </style>
  </defs>
  <g id="books" transform="translate(-3707 -9209)">
    <path id="Path_1" data-name="Path 1" class="cls-1" d="M7,4H1A1,1,0,0,0,0,5V27a1,1,0,0,0,1,1H7a1,1,0,0,0,1-1V5A1,1,0,0,0,7,4ZM6,10H2V8H6Z"/>
    <path id="Path_2" data-name="Path 2" class="cls-1" d="M17,4H11a1,1,0,0,0-1,1V27a1,1,0,0,0,1,1h6a1,1,0,0,0,1-1V5A1,1,0,0,0,17,4Zm-1,6H12V8h4Z"/>
    <path id="Path_3" data-name="Path 3" class="cls-1" d="M23.909,5.546l-5.358,2.7a1,1,0,0,0-.443,1.343l9,17.861a1,1,0,0,0,1.343.443l5.358-2.7a1,1,0,0,0,.443-1.343l-9-17.861a1,1,0,0,0-1.343-.443Z"/>
  </g>
</svg>
